assets/icons/qvision/watch.svg

<svg xmlns="http://www.w3.org/2000/svg" height="24" viewBox="0 0 24 24" width="24"><path d="M0 0h24v24H0z" fill="none" opacity=".1"/><path d="M20 12c0-2.54-1.19-4.81-3.04-6.27L16 0H8l-.95 5.73C5.19 7.19 4 9.45 4 12s1.19 4.81 3.05 6.27L8 24h8l.96-5.73C18.81 16.81 20 14.54 20 12zM6 12c0-3.31 2.69-6 6-6s6 2.69 6 6-2.69 6-6 6-6-2.69-6-6z"/></svg>

<svg width="24" height="24" viewBox="0 0 24 24" fill="none" xmlns="http://www.w3.org/2000/svg">
<g clip-path="url(#clip0_147_3094)">
<path d="M20 12C20 9.46 18.81 7.19 16.96 5.73L16 0H8L7.05 5.73C5.19 7.19 4 9.45 4 12C4 14.55 5.19 16.81 7.05 18.27L8 24H16L16.96 18.27C18.81 16.81 20 14.54 20 12ZM6 12C6 8.69 8.69 6 12 6C15.31 6 18 8.69 18 12C18 15.31 15.31 18 12 18C8.69 18 6 15.31 6 12Z" fill="#323232"/>
</g>
<defs>
<clipPath id="clip0_147_3094">
<rect width="24" height="24" fill="white"/>
</clipPath>
</defs>
</svg>
